X:371
T:Breakfast Call (Peas upon a Trencher)
S:Bruce & Emmett's Drummers and Fifers Guide (1862), p. 37
M:2/4
L:1/16
Q:Allegro
K:G
%%MIDI program 72
%%MIDI transpose 8
%%MIDI ratio 3 1
G2|G>FG>A B2B2|A>GA>B c2B>A|G>AB>c d>ed>B|c>Ad>B G2:|
(MG2|g)>GG>A B2(MB2|a)>AA>B c2B>A|G>AB>c d>ed>B|c>Ad>B G2:||
